X:1
T:Green Beds
M:4/4
L:1/4
K:C
 C| D3/2 E/2 F G| c2 A A| G3/2 F/2 E F/2E/2| D3| A/2B/2| c A A/2B/2 c|\
 d2 c B| A G E c/2B/2| A3| A/2B/2| c2 A/2B/2 c| d d c B| A G c E| F E D|\
 C| D3/2 E/2 F G| c2 A A| G3/2 F/2 E F/2E/2| D3||
